icon-themes/breeze_svg/cmd/lc_mailmergesavedocuments.svg

<svg viewBox="0 0 24 24" xmlns="http://www.w3.org/2000/svg"><path d="m4 4v1 15h1 15v-1-11-.6992188h-.0078l.0078-.0078124-3.292969-3.2929688-.0078.00781v-.00781h-.699231zm1 1h3v4 1h8v-1-4h.292969l2.707031 2.7070312v.2929688 11h-2v-7h-1-8-1v7h-2zm4 0h3.900391v4h-3.900391zm-1 8h8v6h-8z" fill="#4d4d4d"/></svg>

<svg viewBox="0 0 24 24" xmlns="http://www.w3.org/2000/svg">
  <path
     style="fill:#4d4d4d"
     d="M 4,4 V 5 20 H 5 20 V 19 8 7.3007812 H 19.9922 L 20,7.2929688 16.707031,4 16.699231,4.00781 V 4 H 16 Z m 1,1 h 3 v 4 1 h 8 V 9 5 h 0.292969 L 19,7.7070312 V 8 19 H 17 V 12 H 16 8 7 v 7 H 5 Z m 4,0 h 3.900391 V 9 H 9 Z m -1,8 h 8 v 6 H 8 Z"
     />
</svg>
